assets/svg/logo.svg

<svg width="730" height="207" viewBox="0 0 730 207" fill="none" xmlns="http://www.w3.org/2000/svg">
<path d="M549.263 154H529.103L483.455 85.024V154H463.295V53.344H483.455L529.103 122.464V53.344H549.263V154ZM589.346 69.76V94.96H623.186V110.944H589.346V137.584H627.506V154H569.186V53.344H627.506V69.76H589.346ZM680.531 155.008C673.523 155.008 667.187 153.808 661.523 151.408C655.955 149.008 651.539 145.552 648.275 141.04C645.011 136.528 643.331 131.2 643.235 125.056H664.835C665.123 129.184 666.563 132.448 669.155 134.848C671.843 137.248 675.491 138.448 680.099 138.448C684.803 138.448 688.499 137.344 691.187 135.136C693.875 132.832 695.219 129.856 695.219 126.208C695.219 123.232 694.307 120.784 692.483 118.864C690.659 116.944 688.355 115.456 685.571 114.4C682.883 113.248 679.139 112 674.339 110.656C667.811 108.736 662.483 106.864 658.355 105.04C654.323 103.12 650.819 100.288 647.843 96.544C644.963 92.704 643.523 87.616 643.523 81.28C643.523 75.328 645.011 70.144 647.987 65.728C650.963 61.312 655.139 57.952 660.515 55.648C665.891 53.248 672.035 52.048 678.947 52.048C689.315 52.048 697.715 54.592 704.147 59.68C710.675 64.672 714.275 71.68 714.947 80.704H692.771C692.579 77.248 691.091 74.416 688.307 72.208C685.619 69.904 682.019 68.752 677.507 68.752C673.571 68.752 670.403 69.76 668.003 71.776C665.699 73.792 664.547 76.72 664.547 80.56C664.547 83.248 665.411 85.504 667.139 87.328C668.963 89.056 671.171 90.496 673.763 91.648C676.451 92.704 680.195 93.952 684.995 95.392C691.523 97.312 696.851 99.232 700.979 101.152C705.107 103.072 708.659 105.952 711.635 109.792C714.611 113.632 716.099 118.672 716.099 124.912C716.099 130.288 714.707 135.28 711.923 139.888C709.139 144.496 705.059 148.192 699.683 150.976C694.307 153.664 687.923 155.008 680.531 155.008Z" fill="#FEFEFE"/>
<path d="M340.622 206.016C321.806 206.016 304.526 201.6 288.782 192.768C273.038 183.936 260.558 171.744 251.342 156.192C242.126 140.448 237.518 122.688 237.518 102.912C237.518 83.328 242.126 65.76 251.342 50.208C260.558 34.464 273.038 22.176 288.782 13.344C304.526 4.51199 321.806 0.0959988 340.622 0.0959988C359.63 0.0959988 376.91 4.51199 392.462 13.344C408.206 22.176 420.59 34.464 429.614 50.208C438.83 65.76 443.438 83.328 443.438 102.912C443.438 122.688 438.83 140.448 429.614 156.192C420.59 171.744 408.206 183.936 392.462 192.768C376.718 201.6 359.438 206.016 340.622 206.016ZM340.622 170.016C352.718 170.016 363.374 167.328 372.59 161.952C381.806 156.384 389.006 148.512 394.19 138.336C399.374 128.16 401.966 116.352 401.966 102.912C401.966 89.472 399.374 77.76 394.19 67.776C389.006 57.6 381.806 49.824 372.59 44.448C363.374 39.072 352.718 36.384 340.622 36.384C328.526 36.384 317.774 39.072 308.366 44.448C299.15 49.824 291.95 57.6 286.766 67.776C281.582 77.76 278.99 89.472 278.99 102.912C278.99 116.352 281.582 128.16 286.766 138.336C291.95 148.512 299.15 156.384 308.366 161.952C317.774 167.328 328.526 170.016 340.622 170.016Z" fill="#FEFEFE"/>
<path d="M73.0303 102.448C78.6943 103.504 83.3503 106.336 86.9983 110.944C90.6463 115.552 92.4703 120.832 92.4703 126.784C92.4703 132.16 91.1263 136.912 88.4383 141.04C85.8463 145.072 82.0543 148.24 77.0623 150.544C72.0703 152.848 66.1663 154 59.3503 154H16.0063V53.488H57.4783C64.2943 53.488 70.1503 54.592 75.0463 56.8C80.0383 59.008 83.7823 62.08 86.2783 66.016C88.8703 69.952 90.1663 74.416 90.1663 79.408C90.1663 85.264 88.5823 90.16 85.4143 94.096C82.3423 98.032 78.2143 100.816 73.0303 102.448ZM36.1663 94.96H54.5983C59.3983 94.96 63.0943 93.904 65.6863 91.792C68.2783 89.584 69.5743 86.464 69.5743 82.432C69.5743 78.4 68.2783 75.28 65.6863 73.072C63.0943 70.864 59.3983 69.76 54.5983 69.76H36.1663V94.96ZM56.4703 137.584C61.3663 137.584 65.1583 136.432 67.8463 134.128C70.6303 131.824 72.0223 128.56 72.0223 124.336C72.0223 120.016 70.5823 116.656 67.7023 114.256C64.8223 111.76 60.9343 110.512 56.0383 110.512H36.1663V137.584H56.4703ZM160.378 154L138.202 114.832H128.698V154H108.538V53.488H146.266C154.042 53.488 160.666 54.88 166.138 57.664C171.61 60.352 175.69 64.048 178.378 68.752C181.162 73.36 182.554 78.544 182.554 84.304C182.554 90.928 180.634 96.928 176.794 102.304C172.954 107.584 167.242 111.232 159.658 113.248L183.706 154H160.378ZM128.698 99.712H145.546C151.018 99.712 155.098 98.416 157.786 95.824C160.474 93.136 161.818 89.44 161.818 84.736C161.818 80.128 160.474 76.576 157.786 74.08C155.098 71.488 151.018 70.192 145.546 70.192H128.698V99.712ZM220.948 53.488V154H200.788V53.488H220.948Z" fill="#FEFEFE"/>
<rect x="31" y="67" width="40" height="29" fill="#FEFEFE"/>
<rect x="31" y="108" width="43" height="31" fill="#FEFEFE"/>
</svg>

<svg xmlns="http://www.w3.org/2000/svg" width="730" height="207" fill="#fefefe" xmlns:v="https://vecta.io/nano"><path d="M549.263 154h-20.16l-45.648-68.976V154h-20.16V53.344h20.16l45.648 69.12v-69.12h20.16V154zm40.083-84.24v25.2h33.84v15.984h-33.84v26.64h38.16V154h-58.32V53.344h58.32V69.76h-38.16zm91.185 85.248c-7.008 0-13.344-1.2-19.008-3.6-5.568-2.4-9.984-5.856-13.248-10.368s-4.944-9.84-5.04-15.984h21.6c.288 4.128 1.728 7.392 4.32 9.792 2.688 2.4 6.336 3.6 10.944 3.6 4.704 0 8.4-1.104 11.088-3.312 2.688-2.304 4.032-5.28 4.032-8.928 0-2.976-.912-5.424-2.736-7.344s-4.128-3.408-6.912-4.464c-2.688-1.152-6.432-2.4-11.232-3.744-6.528-1.92-11.856-3.792-15.984-5.616-4.032-1.92-7.536-4.752-10.512-8.496-2.88-3.84-4.32-8.928-4.32-15.264 0-5.952 1.488-11.136 4.464-15.552s7.152-7.776 12.528-10.08c5.376-2.4 11.52-3.6 18.432-3.6 10.368 0 18.768 2.544 25.2 7.632 6.528 4.992 10.128 12 10.8 21.024H692.77c-.192-3.456-1.68-6.288-4.464-8.496-2.688-2.304-6.288-3.456-10.8-3.456-3.936 0-7.104 1.008-9.504 3.024-2.304 2.016-3.456 4.944-3.456 8.784 0 2.688.864 4.944 2.592 6.768 1.824 1.728 4.032 3.168 6.624 4.32 2.688 1.056 6.432 2.304 11.232 3.744 6.528 1.92 11.856 3.84 15.984 5.76s7.68 4.8 10.656 8.64 4.464 8.88 4.464 15.12c0 5.376-1.392 10.368-4.176 14.976s-6.864 8.304-12.24 11.088c-5.376 2.688-11.76 4.032-19.152 4.032zm-339.91 51.008c-18.816 0-36.096-4.416-51.84-13.248s-28.224-21.024-37.44-36.576c-9.216-15.744-13.824-33.504-13.824-53.28 0-19.584 4.608-37.152 13.824-52.704 9.216-15.744 21.696-28.032 37.44-36.864S321.806.096 340.622.096c19.008 0 36.288 4.416 51.84 13.248 15.744 8.832 28.128 21.12 37.152 36.864 9.216 15.552 13.824 33.12 13.824 52.704 0 19.776-4.608 37.536-13.824 53.28-9.024 15.552-21.408 27.744-37.152 36.576s-33.024 13.248-51.84 13.248zm0-36c12.096 0 22.752-2.688 31.968-8.064 9.216-5.568 16.416-13.44 21.6-23.616s7.776-21.984 7.776-35.424-2.592-25.152-7.776-35.136c-5.184-10.176-12.384-17.952-21.6-23.328s-19.872-8.064-31.968-8.064-22.848 2.688-32.256 8.064c-9.216 5.376-16.416 13.152-21.6 23.328C281.582 77.76 279 89.472 279 102.912s2.592 25.248 7.776 35.424 12.384 18.048 21.6 23.616c9.408 5.376 20.16 8.064 32.256 8.064zM73.03 102.448c5.664 1.056 10.32 3.888 13.968 8.496s5.472 9.888 5.472 15.84c0 5.376-1.344 10.128-4.032 14.256-2.592 4.032-6.384 7.2-11.376 9.504S66.166 154 59.35 154H16.006V53.488h41.472c6.816 0 12.672 1.104 17.568 3.312 4.992 2.208 8.736 5.28 11.232 9.216 2.592 3.936 3.888 8.4 3.888 13.392 0 5.856-1.584 10.752-4.752 14.688-3.072 3.936-7.2 6.72-12.384 8.352zM36.166 94.96h18.432c4.8 0 8.496-1.056 11.088-3.168 2.592-2.208 3.888-5.328 3.888-9.36s-1.296-7.152-3.888-9.36-6.288-3.312-11.088-3.312H36.166v25.2zm20.304 42.624c4.896 0 8.688-1.152 11.376-3.456 2.784-2.304 4.176-5.568 4.176-9.792 0-4.32-1.44-7.68-4.32-10.08-2.88-2.496-6.768-3.744-11.664-3.744H36.166v27.072H56.47zM160.378 154l-22.176-39.168h-9.504V154h-20.16V53.488h37.728c7.776 0 14.4 1.392 19.872 4.176 5.472 2.688 9.552 6.384 12.24 11.088 2.784 4.608 4.176 9.792 4.176 15.552 0 6.624-1.92 12.624-5.76 18-3.84 5.28-9.552 8.928-17.136 10.944L183.706 154h-23.328zm-31.68-54.288h16.848c5.472 0 9.552-1.296 12.24-3.888 2.688-2.688 4.032-6.384 4.032-11.088 0-4.608-1.344-8.16-4.032-10.656-2.688-2.592-6.768-3.888-12.24-3.888h-16.848v29.52zm92.25-46.224V154h-20.16V53.488h20.16z"/><path d="M31 67h40v29H31zm0 41h43v31H31z"/></svg>
